svgs/svgs_iconset/bus_11.svg

<?xml version="1.0" encoding="UTF-8"?>
<svg width="15" height="15" version="1.1" viewBox="0 0 15 15" xmlns="http://www.w3.org/2000/svg">
 <title>bus_11.svg</title>
 <rect width="15" height="15" fill="none"/>
 <rect width="15" height="15" rx="0" ry="0" fill="#1976d2"/>
 <path transform="translate(2 2)" d="m3 0c-1 0-2 0.5312-2 2v7.5s0 0.5 0.5 0.5l0.5 0.0156v0.4844s0 0.5 0.5 0.5h0.5s0.5 0 0.5-0.5v-0.4844l4-0.0156v0.5s0 0.5 0.5 0.5h0.5c0.5 0 0.5-0.5 0.5-0.5v-0.4844l0.5-0.0156s0.5 0 0.5-0.5v-7.5c0-1.5-1-2-2-2h-5zm0.75 1h3.5c0.1385 0 0.25 0.1115 0.25 0.25s-0.1115 0.25-0.25 0.25h-3.5c-0.1385 0-0.25-0.1115-0.25-0.25s0.1115-0.25 0.25-0.25zm-0.75 1h5c1 0 1 1 1 1v2s0 1-1 1h-5c-1 0-1-1-1-1v-2s0-1 1-1zm-0.25 5.5c0.4142 0 0.75 0.3358 0.75 0.75s-0.3358 0.75-0.75 0.75-0.75-0.3358-0.75-0.75 0.3358-0.75 0.75-0.75zm5.5 0c0.4142 0 0.75 0.3358 0.75 0.75s-0.3358 0.75-0.75 0.75-0.75-0.3358-0.75-0.75 0.3358-0.75 0.75-0.75z" fill="#fff"/>
</svg>

<svg xmlns="http://www.w3.org/2000/svg" viewBox="0 0 15 15" height="15" width="15"><title>bus_11.svg</title><rect fill="none" x="0" y="0" width="15" height="15"></rect><rect x="0" y="0" width="15" height="15" rx="0" ry="0" fill="#4898ff"></rect><path fill="#fff" transform="translate(2 2)" d="M3,0C2,0,1,0.5312,1,2v4v3.5c0,0,0,0.5,0.5,0.5L2,10.0156V10.5
	c0,0,0,0.5,0.5,0.5H3c0,0,0.5,0,0.5-0.5v-0.4844L7.5,10v0.5c0,0,0,0.5,0.5,0.5h0.5C9,11,9,10.5,9,10.5v-0.4844L9.5,10
	c0,0,0.5,0,0.5-0.5V6V2c0-1.5-1-2-2-2H3z M3.75,1h3.5C7.3885,1,7.5,1.1115,7.5,1.25S7.3885,1.5,7.25,1.5h-3.5
	C3.6115,1.5,3.5,1.3885,3.5,1.25S3.6115,1,3.75,1z M3,2h5c1,0,1,1,1,1v2c0,0,0,1-1,1H3C2,6,2,5,2,5V3C2,3,2,2,3,2z M2.75,7.5
	c0.4142,0,0.75,0.3358,0.75,0.75C3.5,8.6642,3.1642,9,2.75,9S2,8.6642,2,8.25C2,7.8358,2.3358,7.5,2.75,7.5z M8.25,7.5
	C8.6642,7.5,9,7.8358,9,8.25C9,8.6642,8.6642,9,8.25,9C7.8358,9,7.5,8.6642,7.5,8.25C7.5,7.8358,7.8358,7.5,8.25,7.5z"></path></svg>
